X:1
T:Stan Chapman's
R:jig
M:6/8
L:1/8
K:A
|:~E2E EFA|~B2B Bce|fea fec|ecA BAF|
|~E2E EFA|~B2B Bce|fea fec|1 ecA ~A2F:|2 ecA ~A2f|]
|:~e2e ece|~f2f fga|fec BAB|cAF ~F2f|
|~e2e ece|~f2f fga|fec BAB|1 cAA ~A2f:|2 cAA ~A2F|]